X: 420
T: Bonaparte's Retreat
B: jims roots
M:4/4
L:1/8
R: reel
Q: 1/4=100
K:Dmaj
V:1 
xAB ||"D"d2 de dBAB | dB"A"AF "D"EDAB | d2 de dBAB | dB"A"AF "D"EDDE||
    |:"D"FDFD ADFD | "A"EDEF GFED | "D"FDFD ADFD | "A"EDEF "D"D2 DE:|
xDE |:"D"F2 FD AFED | "A"E2 E/D/E/F/ GFED |
"D"F2 FD AFED |[1 "A"EF/G/ FE "D"D2 DE:| [2 "A"EF/G/ FE "D"D2|]
% abcbook-tune_id 6298c24585e2efa54651e465


% abcbook-boost 0
% abcbook-tablature 
% abcbook-transpose 
% abcbook-lastupdated 1654178373454
% abcbook-soundfonts 
% abcbook-repeats 1


